Carto/POI/SVG/swimming_solid_24px.svg

<svg width="24" height="24" viewBox="0 0 24 24" fill="none" xmlns="http://www.w3.org/2000/svg">
<path d="M14.8 4L7.15 16.23C7.89101 15.9993 8.664 15.8879 9.44 15.9C10.6587 15.8784 11.864 16.1566 12.95 16.71C13.4336 16.9849 13.9841 17.1199 14.54 17.1C15.0993 17.1218 15.6535 16.9867 16.14 16.71C17.226 16.1566 18.4313 15.8784 19.65 15.9C19.96 15.9 20.24 15.9 20.51 15.9L15.45 10.45C15.3162 10.3061 15.2278 10.126 15.1958 9.93211C15.1638 9.73826 15.1896 9.53928 15.27 9.36L17.32 4.79C17.4502 4.48711 17.5036 4.15672 17.4753 3.82823C17.447 3.49975 17.3379 3.18335 17.1578 2.90721C16.9776 2.63106 16.732 2.40373 16.4428 2.24546C16.1536 2.08718 15.8297 2.00286 15.5 2H7.11L7.82 4H14.8ZM19.65 18.8C18.6525 18.7812 17.6661 19.0115 16.78 19.47C16.0929 19.8405 15.3203 20.0233 14.54 20C13.763 20.022 12.994 19.8392 12.31 19.47C11.4239 19.0115 10.4375 18.7812 9.44 18.8C8.44547 18.7791 7.46176 19.0095 6.58 19.47C5.89603 19.8392 5.12696 20.022 4.35 20C3.57275 20.0249 2.80294 19.8419 2.12 19.47H2V21.61C2.74671 21.9055 3.54785 22.0385 4.35 22C5.34749 22.0187 6.33391 21.7885 7.22 21.33C7.89981 20.9593 8.66607 20.7764 9.44 20.8C10.2172 20.7751 10.9871 20.9581 11.67 21.33C12.5561 21.7885 13.5425 22.0187 14.54 22C15.5375 22.0187 16.5239 21.7885 17.41 21.33C18.0971 20.9595 18.8697 20.7767 19.65 20.8C20.4272 20.7751 21.1971 20.9581 21.88 21.33L22 21.38V19.24C21.2567 18.9286 20.4557 18.7786 19.65 18.8ZM6.78 13H5C4.46957 13 3.96086 12.7893 3.58579 12.4142C3.21071 12.0391 3 11.5304 3 11V9C3 8.46957 3.21071 7.96086 3.58579 7.58579C3.96086 7.21071 4.46957 7 5 7H6.5C6.89782 7 7.27936 7.15804 7.56066 7.43934C7.84196 7.72064 8 8.10218 8 8.5L8.35 10.56L6.78 13Z" fill="#0F1621"/>
</svg>

<svg xmlns="http://www.w3.org/2000/svg" width="24" height="24" viewBox="0 0 24 24"><rect width="24" height="24" style="fill:none"/><path d="M14.8,4,7.15,16.23a7.32,7.32,0,0,1,2.29-.33,7.44,7.44,0,0,1,3.51.81,3,3,0,0,0,1.59.39,3,3,0,0,0,1.6-.39,7.44,7.44,0,0,1,3.51-.81c.31,0,.59,0,.86,0l-5.06-5.45a1,1,0,0,1-.18-1.09l2.05-4.57A2,2,0,0,0,15.5,2H7.11l.71,2Zm4.85,14.8a6,6,0,0,0-2.87.67,4.44,4.44,0,0,1-2.24.53,4.43,4.43,0,0,1-2.23-.53,6,6,0,0,0-2.87-.67,5.91,5.91,0,0,0-2.86.67A4.43,4.43,0,0,1,4.35,20a4.37,4.37,0,0,1-2.23-.53l-.12,0v2.14A5.65,5.65,0,0,0,4.35,22a6,6,0,0,0,2.87-.67,4.36,4.36,0,0,1,2.22-.53,4.37,4.37,0,0,1,2.23.53,6,6,0,0,0,2.87.67,6,6,0,0,0,2.87-.67,4.44,4.44,0,0,1,2.24-.53,4.37,4.37,0,0,1,2.23.53l.12.05V19.24A5.69,5.69,0,0,0,19.65,18.8ZM6.78,13H5a2,2,0,0,1-2-2V9A2,2,0,0,1,5,7h1.5A1.5,1.5,0,0,1,8,8.5l.35,2.06Z"/></svg>
